svg/book_alert_outline.svg

<?xml version="1.0" encoding="UTF-8"?><!DOCTYPE svg PUBLIC "-//W3C//DTD SVG 1.1//EN" "http://www.w3.org/Graphics/SVG/1.1/DTD/svg11.dtd"><svg xmlns="http://www.w3.org/2000/svg" xmlns:xlink="http://www.w3.org/1999/xlink" version="1.1" id="mdi-book-alert-outline" width="24" height="24" viewBox="0 0 24 24"><path d="M16 2H4C2.9 2 2 2.9 2 4V20C2 21.11 2.9 22 4 22H16C17.11 22 18 21.11 18 20V4C18 2.9 17.11 2 16 2M16 20H4V4H6V12L8.5 9.75L11 12V4H16V20M20 15H22V17H20V15M22 7V13H20V7H22Z" /></svg>

<svg xmlns="http://www.w3.org/2000/svg" viewBox="0 0 24 24"><path d="M16 2H4c-1.1 0-2 .9-2 2v16a2 2 0 0 0 2 2h12c1.11 0 2-.89 2-2V4a2 2 0 0 0-2-2m0 18H4V4h2v8l2.5-2.25L11 12V4h5zm4-5h2v2h-2zm2-8v6h-2V7z"/></svg>
